src/images/story_logos/houston.svg

<?xml version="1.0" encoding="UTF-8"?>
<svg width="247px" height="82px" viewBox="0 0 247 82" version="1.1" xmlns="http://www.w3.org/2000/svg" xmlns:xlink="http://www.w3.org/1999/xlink">
    <!-- Generator: Sketch 53.2 (72643) - https://sketchapp.com -->
    <title>mukana/houston copy 2</title>
    <desc>Created with Sketch.</desc>
    <defs>
        <polygon id="path-1" points="0 0.0252440508 130.577457 0.0252440508 130.577457 34.4521189 0 34.4521189"></polygon>
    </defs>
    <g id="mukana/houston-copy-2" stroke="none" stroke-width="1" fill="none" fill-rule="evenodd">
        <g id="houston_simple.eps-copy-3" transform="translate(0.000000, 25.349189)">
            <mask id="mask-2" fill="white">
                <use xlink:href="#path-1"></use>
            </mask>
            <g id="Clip-2"></g>
            <path d="M78.2333169,12.7609345 L78.2333169,24.1266342 L81.2457737,24.1266342 L81.2457737,12.7609345 L85.415049,12.7609345 L85.415049,9.86895463 L74.04788,9.86895463 L74.04788,12.7609345 L78.2333169,12.7609345 Z M91.1636136,16.9718826 C91.1636136,19.4244289 92.8895587,21.4542376 95.3160596,21.4542376 C97.7429612,21.4542376 99.4363161,19.4583548 99.4363161,17.0231721 L99.4363161,17.0062091 C99.4363161,14.5537963 97.7105046,12.5239877 95.2840037,12.5239877 C92.8571021,12.5239877 91.1636136,14.5198705 91.1636136,16.9549196 L91.1636136,16.9718826 Z M88.0042338,17.0231721 L88.0042338,16.9892462 C88.0042338,12.929896 91.0821381,9.6150449 95.3160596,9.6150449 C99.5503818,9.6150449 102.595829,12.8961037 102.595829,16.9549196 L102.595829,16.9718826 C102.595829,21.0312328 99.5179252,24.3460839 95.2840037,24.3460839 C91.0495479,24.3460839 88.0042338,21.0821216 88.0042338,17.0231721 L88.0042338,17.0231721 Z M66.5243515,21.5383844 C64.9606896,21.5383844 63.65815,20.8621377 62.4206572,19.8139086 L60.629131,22.0291074 C62.2740013,23.5516309 64.3747337,24.3125587 66.4593047,24.3125587 C69.4231432,24.3125587 71.491419,22.7223171 71.491419,19.898189 L71.491419,19.8642631 C71.5404379,17.3779244 69.9602137,16.3465246 67.1754877,15.5850626 C64.7980057,14.9597046 64.2115156,14.6549061 64.2115156,13.7079203 L64.2115156,13.6739944 C64.2115156,12.9803841 64.8145679,12.4397073 65.9704516,12.4397073 C67.1268696,12.4397073 68.3157441,12.9634211 69.5372089,13.8430895 L71.1006037,11.4753578 C69.7159208,10.3082545 68.0065379,9.665533 66.0034425,9.665533 C63.2022878,9.665533 61.1991924,11.3739809 61.1991924,13.9616965 L61.1991924,13.9952216 C61.1991924,16.8197504 62.9900508,17.6151384 65.7423202,18.3592368 C68.0385938,18.9681661 68.5110182,19.3740744 68.5110182,20.1690616 L68.5110182,20.2024532 C68.5110182,21.0312328 67.7623785,21.5383844 66.5243515,21.5383844 L66.5243515,21.5383844 Z M29.6063296,16.9718826 C29.6063296,19.4244289 31.3326754,21.4542376 33.7590428,21.4542376 C36.1855437,21.4542376 37.8788986,19.4583548 37.8788986,17.0231721 L37.8788986,17.0062091 C37.8788986,14.5537963 36.1525528,12.5239877 33.7260519,12.5239877 C31.3000852,12.5239877 29.6063296,14.5198705 29.6063296,16.9549196 L29.6063296,16.9718826 Z M26.463245,17.0231721 L26.463245,16.9892462 C26.463245,12.929896 29.5411492,9.6150449 33.7750707,9.6150449 C38.0095265,9.6150449 41.0380112,12.8961037 41.0548406,16.9549196 L41.0548406,16.9718826 C41.0548406,21.0312328 37.9769363,24.3460839 33.7430148,24.3460839 C29.5081583,24.3460839 26.463245,21.0821216 26.463245,17.0231721 L26.463245,17.0231721 Z M50.8583477,24.3125587 C54.554798,24.3125587 56.8836618,22.1986032 56.8836618,17.8854768 L56.8836618,9.85145743 L53.8546429,9.85145743 L53.8546429,18.020646 C53.8546429,20.2871343 52.7308151,21.4372747 50.8908043,21.4372747 C49.0509271,21.4372747 47.9269658,20.2363791 47.9269658,17.9194026 L47.9269658,9.85145743 L44.9139748,9.85145743 L44.9139748,17.9867201 C44.9139748,22.1816402 47.1618974,24.3125587 50.8583477,24.3125587 L50.8583477,24.3125587 Z M2.98040079,31.3652656 L127.581029,31.3652656 L127.581029,3.12011125 L2.98040079,3.12011125 L2.98040079,31.3652656 Z M0,34.4601328 L130.577457,34.4601328 L130.577457,0.0252440508 L0,0.0252440508 L0,34.4601328 Z M14.0047048,18.4095914 L19.5746911,18.4095914 L19.5746911,24.1266342 L22.5876821,24.1266342 L22.5876821,9.86895463 L19.5746911,9.86895463 L19.5746911,15.5002479 L14.0047048,15.5002479 L14.0047048,9.86895463 L10.9923817,9.86895463 L10.9923817,24.1266342 L14.0047048,24.1266342 L14.0047048,18.4095914 Z M109.467821,15.0613487 L116.112216,24.1266342 L118.685239,24.1266342 L118.685239,9.86895463 L115.704838,9.86895463 L115.704838,18.6465382 L109.272681,9.86895463 L106.487955,9.86895463 L106.487955,24.1266342 L109.467821,24.1266342 L109.467821,15.0613487 L109.467821,15.0613487 Z" id="Fill-1" fill="#000105" mask="url(#mask-2)"></path>
        </g>
    </g>
</svg>

<svg xmlns="http://www.w3.org/2000/svg"
    xmlns:xlink="http://www.w3.org/1999/xlink" viewBox="0 25.37 130.58 34.43">
    <defs>
        <path id="a" d="M0 .025h130.577v34.427H0z"/>
    </defs>
    <g transform="translate(0 25.35)" fill="none" fill-rule="evenodd">
        <mask id="b" fill="#fff">
            <use xlink:href="#a"/>
        </mask>
        <path d="M78.233 12.76v11.367h3.013V12.76h4.169V9.869H74.048v2.892h4.185Zm12.93 4.212c0 2.452 1.727 4.482 4.153 4.482 2.427 0 4.12-1.996 4.12-4.43v-.018c0-2.452-1.725-4.482-4.152-4.482s-4.12 1.996-4.12 4.43v.018Zm-3.159.051v-.034c0-4.06 3.078-7.374 7.312-7.374s7.28 3.281 7.28 7.34v.017c0 4.06-3.078 7.374-7.312 7.374s-7.28-3.264-7.28-7.323Zm-21.48 4.515c-1.563 0-2.866-.676-4.103-1.724l-1.792 2.215a8.575 8.575 0 0 0 5.83 2.284c2.964 0 5.032-1.59 5.032-4.415v-.034c.05-2.486-1.53-3.517-4.316-4.279-2.377-.625-2.963-.93-2.963-1.877v-.034c0-.694.603-1.234 1.758-1.234 1.157 0 2.346.523 3.567 1.403l1.564-2.368c-1.385-1.167-3.094-1.81-5.098-1.81-2.8 0-4.804 1.709-4.804 4.297v.033c0 2.825 1.791 3.62 4.543 4.364 2.297.61 2.769 1.015 2.769 1.81v.033c0 .83-.749 1.336-1.987 1.336Zm-36.918-4.566c0 2.452 1.727 4.482 4.153 4.482 2.427 0 4.12-1.996 4.12-4.43v-.018c0-2.452-1.726-4.482-4.153-4.482-2.426 0-4.12 1.996-4.12 4.43v.018Zm-3.143.051v-.034c0-4.06 3.078-7.374 7.312-7.374 4.235 0 7.263 3.281 7.28 7.34v.017c0 4.06-3.078 7.374-7.312 7.374-4.235 0-7.28-3.264-7.28-7.323Zm24.395 7.29c3.697 0 6.026-2.114 6.026-6.428V9.851h-3.03v8.17c0 2.266-1.123 3.416-2.963 3.416s-2.964-1.2-2.964-3.518V9.851h-3.013v8.136c0 4.195 2.248 6.326 5.944 6.326ZM2.98 31.365h124.601V3.12H2.981v28.245ZM0 34.46h130.577V.025H0V34.46Zm14.005-16.05h5.57v5.717h3.013V9.869h-3.013V15.5h-5.57V9.87h-3.013v14.258h3.013V18.41Zm95.463-3.349 6.644 9.066h2.573V9.869h-2.98v8.778l-6.432-8.778h-2.785v14.258h2.98V15.06Z" fill="#000105" mask="url(#b)"/>
    </g>
</svg>
